!!!COM: Mozart, Wolfgang Amadeus
!!!CDT: 1756/01/27/-1791/12/05/
!!!CNT: German
!!!OTL: Piano Sonata No. 12 in F major
!!!SCT1: K<sup>1</sup> 332
!!!SCT2: K<sup>6</sup> 300k
!!!OMV: Mvmt. 2
!!!OMD: Adagio
!!!ODT: ~1783///
**kern	**kern	**dynam
*staff2	*staff1	*staff1/2
*clefF4	*clefG2	*clefG2
*k[b-e-]	*k[b-e-]	*k[b-e-]
*B-:	*B-:	*B-:
*met(c)	*met(c)	*met(c)
*M4/4	*M4/4	*M4/4
*MM60	*MM60	*MM60
=1-	=1-	=1-
16B-\LL	4b-\	p
16f\	.	.
16d\	.	.
16f\JJ	.	.
16B-\LL	(8.dd\L	.
16f\	.	.
16d\	.	.
16f\JJ	16ee-\Jk)	.
16A\LL	(8.een\L	.
16f\	.	.
16c\	.	.
16f\JJ	16ff\Jk)	.
16A\LL	8cc\	.
16f\	.	.
16c\	8r	.
16f\JJ	.	.
=2	=2	=2
16G\LL	(8.ee-\L	.
16e-\	.	.
16B-\	.	.
16e-\JJ	16ff\Jk)	.
16E-\LL	(8.gg\L	.
16B-\	.	.
16G\	.	.
16B-\JJ	16aa\Jk)	.
16D\LL	(8.aa\L	.
16B-\	.	.
16F\	.	.
16B-\JJ	16bb-\Jk)	.
16D\LL	8ff'\	.
16B-\	.	.
16F\	8r	.
16B-\JJ	.	.
=3	=3	=3
16E-\LL	(8.gg\L	.
16G\	.	.
16E-\	.	.
16Bn\JJ	32aa-\LL	.
.	32gg\JJJ	.
16E-\LL	16ff\LL	.
16c\	16ee-\	.
16E-\	16dd\	.
16e-\JJ	16cc\JJ)	.
16D\LL	(16een\LK	.
16F\	8ff\	.
16D\	.	.
16A\JJ	32gg\LL	.
.	32ff\JJJ	.
16D\LL	16ee-\LL	.
16B-\	16dd\	.
16D\	16cc\	.
16d\JJ	16b-\JJ)	.
=4	=4	=4
16A\LL	(16ff\LK	.
16f\	8ee-\	.
16c\	.	.
16f\JJ	16cc\Jk)	.
16B-\LL	(16ee-\LK	.
16f\	8dd\	.
16d\	.	.
16f\JJ	16b-\Jk)	.
16F\LL	(8.dd\L	.
16d\	.	.
16B-\	.	.
16d\JJ	32ee-\LL	.
.	32dd\JJJ	.
8F\ 8A\ 8c\	16cc\LL)	.
.	(16ff\	.
8r	16ee-\	.
.	16cc\JJ)	.
=5	=5	=5
16B-\LL	(8.b-\L	.
16f\	.	.
16d-\	.	.
16f\JJ	16cc\Jk)	.
16B-\LL	(8.dd-\L	.
16f\	.	.
16d-\	.	.
16f\JJ	16ee-\Jk)	.
16A-\LL	(8.een\L	.
16f\	.	.
16c\	.	.
16f\JJ	16ff\Jk)	.
16A-\LL	8cc\	.
16f\	.	.
16c\	8r	.
16f\JJ	.	.
=6	=6	=6
16G-\LL	(8.ee-\L	.
16e-\	.	.
16B-\	.	.
16e-\JJ	16ff\Jk)	.
16E-\LL	(8.gg-\L	.
16B-\	.	.
16G-\	.	.
16B-\JJ	16aa-\Jk)	.
16Dn\LL	(8.aan\L	.
16B-\	.	.
16F\	.	.
16B-\JJ	16bb-\Jk)	.
16D-\LL	8ff'\	.
16B-\	.	.
16F\	8r	.
16B-\JJ	.	.
=7	=7	=7
.	32eenQ/	.
16C\LL	[4ddd-\	.
16B-\	.	.
16Gn\	.	.
16B-\JJ	.	.
16C\LL	16ddd-\LL]	.
16B-\	(32ccc\L	.
.	32bb-\J)	.
16G\	(32aa-\L	.
.	32ggn\J)	.
16B-\JJ	(32ff\L	.
.	32een\JJJ)	.
16D-\LL	(8gg\L	.
16A-\	.	.
16F\	[8ff\J	.
16A-\JJ	.	.
16BB-\LL	16ff\LK]	.
16G\	8ee-\	.
16D-\	.	.
16G\JJ	16dd-\Jk)	.
=8	=8	=8
*^	*^	*
2r	16C\LL	4r	(8.cc\L	.
.	16A-\	.	.	.
.	16F\	.	.	.
.	16A-\JJ	.	16dd-\Jk)	.
.	16C\LL	(8f/L	8f\L	.
.	16B-\	.	.	.
.	16G\	16a-/L	8en\J	.
.	16B-\JJ	16g/JJ	.	.
(16An/LL	8F\	4f/)	2r	.
16c/	.	.	.	.
16c/)	8r	.	.	.
16c/JJ	.	.	.	.
(16A/LL	8F\L	4r	.	.
16c/	.	.	.	.
16B-/	8G\J)	.	.	.
16c/JJ)	.	.	.	.
*	*	*v	*v	*
=9	=9	=9	=9
(16G/LL	8En\	8b-\	.
16c/	.	.	.
16c/)	8r	8r	.
16c/JJ	.	.	.
(16E/LL	8C\L	8g'/L	.
16c/	.	.	.
16B-/	8G\J)	8en'/J	.
16c/JJ)	.	.	.
(16A/LL	8F\	(16.cc/LL	.
16c/	.	.	.
.	.	32a/Jk	.
16c/)	8r	8cc'/J)	.
(16c/JJ	.	.	.
16A/LL	8F\L	4r	.
(16c/	.	.	.
16B-/	8G\J)	.	.
16c/JJ)	.	.	.
=10	=10	=10	=10
(16G/LL	8En\	8b-\	.
16c/)	.	.	.
16c/	8r	8r	.
16c/JJ	.	.	.
(16E/LL	(8C\L	8g'/L	.
16c/	.	.	.
16B-/	8G\J)	8en'/J	.
16c/JJ)	.	.	.
8A/	8F\	(16.cc/LL	.
.	.	32a/Jk	.
8r	8r	8cc'/J)	.
4r	4r	16ff\ (16aa\LL	.
.	.	16een\ 16gg\	.
.	.	16dd\ 16ff\	.
.	.	16cc#\ 16ee\JJ)	.
=11	=11	=11	=11
2.r	2r	16dd\ (16ff\LL	.
.	.	16ccn\ 16een\	.
.	.	16b-\ 16dd\	.
.	.	16a\ 16cc#\JJ)	.
.	.	16b-\ (16dd\LL	.
.	.	16a\ 16ccn\	.
.	.	16g\ 16b-\	.
.	.	16f#\ 16a\JJ)	.
.	4D\ 4F#\ 4A\ 4c\	[4d/ 4f#/ (4a/	.
(8B-/L	4G\	16d/] 16g/ 16b-/)	p
.	.	(16b-\LL	.
.	.	16aQ/LL	.
.	.	16b-Q/JJ	.
8en/J)	.	16cc\	.
.	.	16dd\JJ)	.
=12	=12	=12	=12
*	*	*^	*
4r	8A\ (8fn\L	(24cc/LL	4r	.
.	.	24b-/	.	.
.	.	24a/JJ	.	.
.	8B-\ 8d\J)	24g/LL	.	.
.	.	24b-/	.	.
.	.	(24dd/JJ)	.	.
(8A/L	4C\	(8fn/L	8fn\L	.
8B-/J)	.	8g/J)	8en\J)	.
(16B-/LL	8F\	(16.g/LL	(8e\L	.
16c/)	.	.	.	.
.	.	32g#/Jk	.	.
16c/	8r	8a'/J)	8f\J)	.
16c/JJ	.	.	.	.
(16A/LL	(8F\L	4r	4r	.
16c/	.	.	.	.
16B-/	8G\J)	.	.	.
16c/JJ)	.	.	.	.
*	*	*v	*v	*
=13	=13	=13	=13
(16G/LL	8En\	8b-\	.
16c/)	.	.	.
16c/	8r	8r	.
16c/JJ	.	.	.
(16E/LL	(8C\L	8gn'/L	.
16c/	.	.	.
16B-/	8G\J)	8en'/J	.
16c/JJ)	.	.	.
16A/LL	8F\	(16.cc/LL	.
16c/	.	.	.
.	.	32a/Jk	.
16c/	8r	8cc'/J)	.
16c/JJ	.	.	.
(16A/LL	(8F\L	4r	.
16c/	.	.	.
16B-/	8G\J)	.	.
16c/JJ)	.	.	.
=14	=14	=14	=14
(16G/LL	8En\	8b-\	.
16c/	.	.	.
16c/)	8r	8r	.
16c/JJ	.	.	.
(16E/LL	(8C\L	8g'/L	.
16c/	.	.	.
16B-/	8G\J)	8en'/J	.
16c/JJ)	.	.	.
8A/	8F\	(16.cc\LL	.
.	.	32ff\Jk	.
8r	8r	8cc'\J	.
4r	4r	16ff\) (16aa\LL	.
.	.	16een\ 16gg\	.
.	.	16dd\ 16ff\	.
.	.	16cc#\ 16ee\JJ)	.
=15	=15	=15	=15
2.r	2r	16dd\ (16ff\LL	.
.	.	16ccn\ 16een\	.
.	.	16b-\ 16dd\	.
.	.	16a\ 16cc#\JJ)	.
.	.	(16b-/ 16dd/LL	.
.	.	16a/ 16ccn/	.
.	.	16g/ 16b-/	.
.	.	16f#/) 16a/JJ	.
.	(4D\ 4F#\ 4A\ (4c\	[4d/ 4f#/ (4a/	.
(8B-/L)	4G\)	16d/] 16g/ 16b-/	p
.	.	(16b-\LL)	.
.	.	16aQ/LL	.
.	.	16b-Q/JJ	.
8en/J)	.	16cc\	.
.	.	16dd\JJ)	.
=16	=16	=16	=16
4r	8A\ (8fn\L	(24cc\LL	.
.	.	24ffn\	.
.	.	24a\JJ	.
.	8B-\ 8d\J)	24g\LL	.
.	.	24b-\	.
.	.	24dd\JJ)	.
(8A/L	4C\	(8f/L	.
8G/J)	.	8en/J)	.
.	.	(32aQ/	.
2r	16r	([8aa\L)	.
.	(16F\LL	.	.
.	16A\	32.aa\LL]	.
.	.	64ff\JJJk	.
.	16d\JJ)	(32ff\LLL)	.
.	.	64een\L	.
.	.	64ff\JJJJ)	.
.	.	(32b-Q/	.
.	16r	([8bb-\L)	.
.	(16G\LL	.	.
.	16B-\	32.bb-\LL]	.
.	.	64gg\JJJk	.
.	16en\JJ)	(32gg\LLL)	.
.	.	64ff#\L	.
.	.	64gg\JJJJ)	.
=17	=17	=17	=17
4r	16r	(16.ccc\LL	.
.	(16A\LL	.	.
.	.	32aa\Jk)	.
.	16c\	[8ffn\J	.
.	[16f\JJ)	.	.
8r	4A\ 4f\]	(16ff\LL]	.
.	.	16ee-\	.
8e-/	.	16dd\	.
.	.	16cc#\JJ	.
2r	8B-\ 8d\ 8f\	16dd\LL)	.
.	.	32een'\L	.
.	.	32ff#'\JJJ	.
.	8r	32gg'\LLL	.
.	.	32aa'\	.
.	.	32bb-\	.
.	.	(32ccc#\JJJ	.
.	8B-\ 8d\ 8g\	32ddd\LLL)	.
.	.	(32cccn\	.
.	.	32bb-\	.
.	.	32aa'\JJJ)	.
.	8r	32gg'\LLL	.
.	.	32ffn'\	.
.	.	32een'\	.
.	.	32dd'\JJJ	.
*v	*v	*	*
=18	=18	=18
(16C\LL	8cc\L	.
16A\	.	.
16F\	([8ccc\J	.
16A\JJ	.	.
16C\LL	24ccc\LL]	.
.	24aa\	.
16A\	.	.
.	24ff\JJ	.
16F\	32cc\LLL	.
.	32a\	.
16A\JJ	32ff\JJJ)	.
.	64r	.
.	64f'/	.
16C\LL	2g/	.
16B-\	.	.
16En\	.	.
16B-\JJ	.	.
16C\LL	.	.
16B-\	.	.
16E\	.	.
16B-\JJ)	.	.
=19	=19	=19
*^	*	*
.	.	16fQ/LL	.
.	.	16gQ/JJ	.
16F/LL	(1F	8f/	.
16c/	.	.	.
16f/	.	32r	.
.	.	32ff\LLK	.
16e-/JJ	.	(16ff\JJ	.
.	.	32eenQ/LLL	.
.	.	32ffQ/JJJ	.
8d/L	.	16ccc\LL	.
.	.	16bb-\	.
8B-/J	.	16aa\	.
.	.	16gg\JJ)	.
16A/LL	.	(16gg\LL	.
16c/	.	16ff\JJ)	.
16f/	.	32r	.
.	.	(32ff\LLK	.
16e-/JJ	.	16ff\JJ	.
.	.	32eeQ/LLL	.
.	.	32ffQ/JJJ	.
8d/L	.	16ccc\LL	.
.	.	16bb-\	.
8B-/J)	.	16aa\	.
.	.	16gg\JJ)	.
=20	=20	=20	=20
16F/ (16A/LL	[2F\	(16gg\LL	.
16G/ 16B-/	.	16ff\J	.
16A/ 16c/	.	(8ff'\)	.
16B-/ 16d/JJ	.	.	.
16c/ 16e-/LL	.	8ff'\	.
16Bn/ 16d/	.	.	.
16c/ 16e-/	.	8ff'\J)	.
16B/ 16d/JJ	.	.	.
4c/ 4e-/)	4F\]	(4ff\	.
4r	4r	32een\LLL	.
.	.	32ff\	.
.	.	32gg\	.
.	.	32ff\JJJ	.
.	.	(32ff\LLL)	.
.	.	32ee-\	.
.	.	32dd\	.
.	.	32cc\JJJ)	.
*v	*v	*	*
=21	=21	=21
16B-\LL	4b-\	p
16f\	.	.
16d\	.	.
16f\JJ	.	.
16B-\LL	(8.dd\L	.
16f\	.	.
16d\	.	.
16f\JJ	16ee-\Jk)	.
16A\LL	(8.een\L	.
16f\	.	.
16c\	.	.
16f\JJ	16ff\Jk)	.
16A\LL	8cc\	.
16f\	.	.
16c\	8r	.
16f\JJ	.	.
=22	=22	=22
16G\LL	(8.ee-\L	.
16e-\	.	.
16B-\	.	.
16e-\JJ	16ff\Jk)	.
16E-\LL	(8.gg\L	.
16B-\	.	.
16G\	.	.
16B-\JJ	16aa\Jk)	.
16D\LL	(8.aa\L	.
16B-\	.	.
16F\	.	.
16B-\JJ	16bb-\Jk)	.
16D\LL	8ff'\	.
16B-\	.	.
16F\	8r	.
16B-\JJ	.	.
=23	=23	=23
16E-\LL	(8.gg\L	.
16G\	.	.
16E-\	.	.
16Bn\JJ	32aa-\LL	.
.	32gg\JJJ	.
16E-\LL	16ff\LL	.
16c\	16ee-\	.
16E-\	16dd\	.
16e-\JJ	16cc\JJ)	.
16D\LL	(16een\LK	.
16F\	8ff\	.
16D\	.	.
16A\JJ	32gg\LL	.
.	32ff\JJJ	.
16D\LL	16ee-\LL	.
16B-\	16dd\	.
16D\	16cc\	.
16d\JJ	16b-\JJ)	.
=24	=24	=24
(16A\LL	32ff'\LLL	.
.	32een'\JJ	.
16f\	(8ee-\	.
16c\	.	.
16f\JJ)	16cc\Jk)	.
(16B-\LL	32ee-\LLL	.
.	32cc#\JJ	.
16f\	(8dd\	.
16d\	.	.
16f\JJ)	16b-\Jk)	.
(16F\LL	(8.dd\L	.
16d\	.	.
16B-\	.	.
16d\JJ)	32ee-\LL	.
.	32dd\JJJ)	.
8F\ 8A\ 8c\	24ccn'\LL	<
.	24ff'\	.
.	24een'\JJ	.
8r	(32ee-\LLL	>
.	32dd\	.
.	32ee-\	.
.	32cc\JJJ)	.
=25	=25	=25
(16B-\LL	(8.b-\L	p
16f\	.	.
16d-\	.	.
16f\JJ)	16cc\Jk)	.
(16B-\LL	(8.dd-\L	.
16f\	.	.
16d-\	.	.
16f\JJ)	16ee-\Jk)	.
(16A-\LL	(8.een\L	.
16f\	.	.
16c\	.	.
16f\JJ)	16ff\Jk)	.
(16A-\LL	8cc\	.
16f\	.	.
16c\	8r	.
16f\JJ)	.	.
=26	=26	=26
(16G-\LL	([8e-/	.
16B-\	.	.
16G-\	56e-/LLLL]	<
.	56f/	.
.	56e-/	.
.	56d/	.
16B-\JJ)	.	.
.	56e-/	.
.	56en/	.
.	56f/JJJJ	.
(16E-\LL	64g-/LLLL	.
.	64gn/	.
.	64a-/	.
.	64an/	.
16B-\	64b-/	.
.	64cc-/	.
.	64ccn/	.
.	64dd-/JJJJ	.
16G-\	64ddn\LLLL	.
.	64ee-\	.
.	64een\	.
.	64ff\	.
16B-\JJ)	64gg-\	.
.	64ggn\	.
.	64aa-\	.
.	64aan\JJJJ)	.
(16Dn\LL	(8.aa\L	.
16B-\	.	.
16F\	.	.
16B-\JJ)	16bb-\Jk)	.
(16D-\LL	8ff'\	.
16B-\	.	.
16F\	8r	.
16B-\JJ)	.	.
=27	=27	=27
.	32eenQ/	.
(16C\LL	[4ddd-\	.
16B-\	.	.
16Gn\	.	.
16B-\JJ)	.	.
(16C\LL	16ddd-\LL]	p
16B-\	(32ccc\L	.
.	32bb-\)	.
16G\	(32aa-\	.
.	32gg\)	.
16B-\JJ)	(32ff\	.
.	32een\JJJ)	.
(16D-\LL	(8gg\L	.
16A-\	.	.
16F\	[8ff\J)	.
16A-\JJ)	.	.
(16BB-\LL	(16ff\LL]	.
16G\	16een\JJ	.
16D-\	24ee-\LL	.
.	24dd\	.
16G\JJ)	.	.
.	24dd-\JJ)	.
=28	=28	=28
*^	*^	*
2r	(16C\LL	4r	(8.cc\L	.
.	16A-\	.	.	.
.	16F\	.	.	.
.	16A-\JJ)	.	16dd-\Jk)	.
.	(16C\LL	8f/L	8f\L	.
.	16B-\	.	.	.
.	16G\	16a-/L	8en\J	.
.	16B-\JJ)	16g/JJ	.	.
(16An/LL	8F\	4f/	2r	p
16f/	.	.	.	.
16f'/)	8r	.	.	.
16f'/JJ	.	.	.	.
(16dn/LL	(8B-\L	4r	.	.
16f/	.	.	.	.
16e-/	8c\J)	.	.	.
16f/JJ)	.	.	.	.
*	*	*v	*v	*
=29	=29	=29	=29
(16c/LL	8A\	8ee-\	.
16f/)	.	.	.
16f/	8r	8r	.
16f/JJ	.	.	.
(16A/LL	8F\L	8cc'/L	.
16f/	.	.	.
16e-/	8c\J)	8an'/J	.
16f/JJ	.	.	.
(16d/LL)	8B-\	(16.ff\LL	.
16f/)	.	.	.
.	.	32dd\Jk	.
16f/	8r	8ff\J)	.
16f/JJ	.	.	.
(16d/LL	8B-\L	4r	.
16f/	.	.	.
16e-/	8c\J)	.	.
16f/JJ)	.	.	.
=30	=30	=30	=30
(16c/LL	8A\	(16ff\LL	.
16f/)	.	16ee-\JJ)	.
16f'/	8r	8r	.
16f'/JJ	.	.	.
(16A/LL	(8F\L	(16dd\LL	.
16f/	.	32cc\JJk)	.
.	.	32r	.
16e-/	8c\J)	(16b-/LL	.
16f/JJ)	.	32a/JJk)	.
.	.	32r	.
8d/	8B-\	(16.ff\LL	.
.	.	32dd\Jk	.
8r	8r	8ff'\J)	.
*clefG2	*clefG2	*	*
(16b-/ 16dd/LL	4r	16bb-\ (16ddd\LL	.
16a/ 16cc/	.	16aa\ 16ccc\	.
16g/ 16b-/	.	16gg\ 16bb-\	.
16f#/) 16a/JJ	.	16ff#\ 16aa\JJ)	.
*v	*v	*	*
*clefF4	*	*
=31	=31	=31
*^	*	*
2r	2.r	16gg\ (16bb-\LL	.
.	.	16ffn\ 16aa\	.
.	.	16ee-\ 16gg\	.
.	.	16dd\ 16ff#\JJ	.
.	.	16ee-\ (16gg\LL)	.
.	.	16dd\ 16ffn\	.
.	.	16cc\ 16ee-\	.
.	.	16bn\ 16dd\JJ	.
*clefG2	*clefG2	*	*
(4G/ 4Bn/ 4d/ (4f/	.	[4g\ 4b\ (4dd\)	.
(8e-/L)	4c\)	16g\] 16cc\ 16ee-\)	.
.	.	(16ee-\LL	.
.	.	16ddQ/LL	.
.	.	16ee-Q/JJ	.
8a/J)	.	16ff\	.
.	.	16gg\JJ)	.
=32	=32	=32	=32
*	*	*^	*
(8d/ 8b-/L	4r	2r	(24ff\LL	.
.	.	.	24ee-\	.
.	.	.	24dd\JJ	.
8e-/) 8g/J	.	.	24cc\LL	.
.	.	.	24ee-\	.
.	.	.	24gg\JJ)	.
*clefF4	*clefF4	*	*	*
(8d/L	4F\	.	(8b-\L	.
8e-/J)	.	.	8a\ 8cc\J)	.
(16e-/LL	8B-\	(16.cc/LL	(8a\L	.
16f/	.	.	.	.
.	.	32cc#/Jk	.	.
16f'/)	8r	8dd/J	8b-\J)	.
16f'/JJ	.	.	.	.
(16d/LL	8B-\L	4r	4r	.
16f/	.	.	.	.
(16e-/)	8c\J	.	.	.
16f/JJ)	.	.	.	.
*	*	*v	*v	*
=33	=33	=33	=33
(16c/LL	8A\	8ee-\	.
16f/	.	.	.
16f/)	8r	8r	.
(16f/JJ	.	.	.
16A/LL	(8F\L	8cc'\L	.
16f/)	.	.	.
(16e-/	8c\J)	8a'\J	.
16f/JJ)	.	.	.
(16d/LL	8B-\	(16.ff\LL	.
16f/)	.	.	.
.	.	32dd\Jk	.
16f/	8r	8ff'\J)	.
16f/JJ	.	.	.
(16d/LL	(8B-\L	4r	.
16f/	.	.	.
(16e-/)	8c\J)	.	.
16f/JJ)	.	.	.
*v	*v	*	*
=34	=34	=34
*^	*	*
(16c/LL	8A\	8ee-\	.
16f/	.	.	.
16f/)	8r	8r	.
16f/JJ	.	.	.
(16A/LL	(8F\L	8cc'\L	.
16f/)	.	.	.
16e-/	8c\J)	8a'\J	.
16f/JJ	.	.	.
2r	8B-\ 8d\	(16.ff\LL	.
.	.	32bb-\Jk	.
.	8r	8ff'\J)	.
*clefG2	*clefG2	*	*
.	(16b-/ 16dd/LL	16bb-\ (16ddd\LL	.
.	16a/ 16cc/	16aa\ 16ccc\	.
.	16g/ 16b-/	16gg\ 16bb-\	.
.	16f#/) 16a/JJ	16ff#\ 16aa\JJ)	.
=35	=35	=35	=35
(16g/ 16b-/LL	2.r	16gg\ (16bb-\LL	.
16fn/ 16a/	.	16ffn\ 16aa\	.
16e-/ 16g/	.	16ee-\ 16gg\	.
16d/) 16f#/JJ	.	16dd\ 16ff#\JJ)	.
(16e-/ 16g/LL	.	16ee-\ (16gg\LL	.
16d/ 16fn/	.	16dd\ 16ffn\	.
16c/ 16e-/	.	16cc\ 16ee-\	.
16Bn/) 16d/JJ	.	16bn\ 16dd\JJ)	.
(4G/ 4B/ 4d/ (4f/	.	[4g\ 4b\ (4dd\	.
(8e-/L)	4c\)	16g\] 16cc\ 16ee-\LL)	.
.	.	(16ee-\	.
.	.	16ddQ/LL	.
.	.	16ee-Q/JJ	.
8a/J)	.	16ff\	.
.	.	16gg\JJ)	.
=36	=36	=36	=36
(8d/ 8b-/L	4r	(24ff\LL	.
.	.	24bb-\	.
.	.	24dd\JJ	.
8e-/) 8g/J	.	24gg\LL	.
.	.	24ee-\	.
.	.	24cc\JJ)	.
*clefF4	*clefF4	*	*
(8d/L	4F\	(8b-/L	.
8c/J)	.	8a/J)	.
.	.	(32dQ/	.
2r	16r	([8dd\L)	f
.	(16BB-\LL	.	.
.	16D\	32.dd\LL]	.
.	.	64b-\JJJk)	.
.	16G\JJ)	(32b-\LLL	.
.	.	64a\L	.
.	.	(64b-\JJJJ)	.
.	.	32e-Q/	.
.	16r	([8ee-\L)	.
.	(16C\LL	.	.
.	16E-\	32.ee-\LL]	.
.	.	64cc\JJJk)	.
.	16A\JJ)	(32cc\LLL	.
.	.	64bn\L	.
.	.	64cc\JJJJ)	.
=37	=37	=37	=37
4r	16r	(16.ff\LL	.
.	(16D\LL	.	.
.	.	32b-\Jk)	.
.	16F\	[8bb-\J	.
.	[16B-\JJ)	.	.
8B-/L]	4D\	16bb-\LL]	.
.	.	(16aa-\	.
8A-/ 8B-/J	.	16gg\	.
.	.	(16ff#\JJ	.
8G/ 8B-/	8E-\	32ff#\LLL	.
.	.	32gg\)	.
.	.	32bb-\	.
.	.	32gg\JJJ	.
8r	8r	32dd\LLL	.
.	.	32ee-\	.
.	.	32gg\	.
.	.	32ee-\JJJ	.
4r	8E-\ 8G\ 8c\	32bn\LLL	.
.	.	32cc\	.
.	.	32ee-\	.
.	.	32dd\JJJ	.
.	8r	32ffn\LLL	.
.	.	32ee-\	.
.	.	32dd\	.
.	.	32cc\JJJ)	.
*v	*v	*	*
=38	=38	=38
*clefF4	*clefG2	*clefG2
*k[b-e-]	*k[b-e-]	*k[b-e-]
.	32fQ/	.
16F\LL	([4ff\	.
(16d\	.	.
16B-\	.	.
16d\JJ	.	.
16F\LL	16ff\LL]	.
16d\	16gg'\	.
16B-\	16aa'\	.
16d\JJ	16bb-\JJ)	.
16F\LL	2cc\	.
16e-\	.	.
16A\	.	.
16e-\JJ	.	.
16F\LL	.	.
16e-\	.	.
16A\	.	.
16e-\JJ)	.	.
*clefG2	*	*
=39	=39	=39
*^	*	*
.	.	16b-Q/LL	.
.	.	16ccQ/JJ	.
(16B-/LL	1B-	8b-\	p
16d/	.	.	.
16f/	.	32r	.
.	.	32b-'\LLK	.
16a-/JJ	.	(16b-\JJ	.
.	.	16aQ/LL	.
.	.	16b-Q/JJ	.
8g/L	.	16ff\LL	.
.	.	16ee-\	.
8e-/J)	.	16dd\	.
.	.	16cc\JJ	.
(16d/LL	.	(16cc\LL)	.
16f/	.	16b-\JJ)	.
16a-/	.	32r	.
.	.	32b-'\LLK	.
16f#/JJ	.	(16b-\JJ	.
.	.	16aQ/LL	.
.	.	16b-Q/JJ	.
8g/L	.	16ff\LL	.
.	.	16ee-\	.
8e-/J)	.	16dd\	.
.	.	16cc\JJ)	.
=40	=40	=40	=40
4B-\	16r	16b-\	.
.	16d/ (16fn/LL	16r	.
.	16e-/ 16g/	(16.ee-\LL	.
.	16c/ 16e-/JJ)	.	.
.	.	32an\JJk	.
4B-\	(16d/LL	16b-'\)	.
.	16d/ 16f/	16r	.
.	16e-/ 16g/	(16.gg\LL	.
.	16c/ 16e-/JJ	.	.
.	.	32a\JJk)	.
*clefF4	*clefF4	*	*
[4BB-\ [4B-\)	2r	(4c/ 4e-/ [4f/ (4a/	.
8BB-\] 8D\ 8F\ 8B-\]	.	8d/) 8f/] 8b-/)	.
8r	.	8r	.
*v	*v	*	*
==	==	==
*-	*-	*-
!!!SMS: Alte Mozart-Ausgabe, Band 20, Breitkopf &amp; H&auml;rtel 1877-1883.
!!!ONB: Stich und Druck von Breitkopf &amp; H&auml;rtel in Leipzig
!!!ONB: Ausgegeben 1878
!!!ENC: Craig Stuart Sapp
!!!END: 2009/10/15/
!!!title: @{OTL}, K 332 (300k), @{OMV}
!!!hum2abc: --no-tempo -s 0.65 --spacing 2.0 -p "%gracespace  0 6.0 12.0"
